X: 16456
T: Hag With No Money, The
R: jig
M: 6/8
K: Gmajor
BcB G2D|GAG G2D|E2A AGA|BAG AGE|
DEG G2A|BAG B2D|E2A AGA|BAG G2A:|
Bde g2d|Bdc BAG|E2A AGA|BGA AGE|
DGB d2c|Bdc BAG|E2A AGA|BAG G2A:|

